dist/assets/images/form-question-1.svg

<?xml version="1.0" encoding="UTF-8"?>
<svg width="36px" height="36px" viewBox="0 0 36 36" version="1.1" xmlns="http://www.w3.org/2000/svg" xmlns:xlink="http://www.w3.org/1999/xlink">
    <!-- Generator: Sketch 41.2 (35397) - http://www.bohemiancoding.com/sketch -->
    <title>noun_221171</title>
    <desc>Created with Sketch.</desc>
    <defs></defs>
    <g id="Symbols" stroke="none" stroke-width="1" fill="none" fill-rule="evenodd">
        <g id="footer_960" transform="translate(-509.000000, -272.000000)" fill="#FFFFFF">
            <g id="footer">
                <g id="Group-17">
                    <g id="noun_221171" transform="translate(509.000000, 272.000000)">
                        <g id="Group">
                            <path d="M18.2823529,0 C8.54117647,0 0.635294118,7.8624 0.635294118,17.55 C0.635294118,27.2376 8.54117647,35.1 18.2823529,35.1 C22.2352941,35.1 26.0470588,33.7662 29.1529412,31.3794 L29.1529412,33.1344 L30.7058824,33.1344 L30.7058824,28.5012 L26.0470588,28.5012 L26.0470588,30.0456 L28.4470588,30.0456 C25.5529412,32.3622 22.0235294,33.6258 18.3529412,33.6258 C9.38823529,33.6258 2.11764706,26.3952 2.11764706,17.55 C2.11764706,8.7048 9.38823529,1.5444 18.2823529,1.5444 C27.1764706,1.5444 34.4470588,8.7048 34.4470588,17.55 C34.4470588,21.06 33.3176471,24.3594 31.2,27.1674 L32.4,28.08 C34.7294118,24.9912 35.9294118,21.3408 35.9294118,17.55 C36,7.8624 28.0235294,0 18.2823529,0 Z" id="Shape"></path>
                            <path d="M15.9529412,9.2664 C14.4705882,9.2664 13.2705882,10.4598 13.2705882,11.934 L13.2705882,23.2362 C13.2705882,24.7104 14.4705882,25.9038 15.9529412,25.9038 L20.6823529,25.9038 C22.1647059,25.9038 23.3647059,24.7104 23.3647059,23.2362 L23.3647059,11.934 C23.3647059,10.4598 22.1647059,9.2664 20.6823529,9.2664 L15.9529412,9.2664 Z M21.8117647,11.934 L21.8117647,23.2362 C21.8117647,23.868 21.3176471,24.3594 20.6823529,24.3594 L15.9529412,24.3594 C15.3176471,24.3594 14.8235294,23.868 14.8235294,23.2362 L14.8235294,11.934 C14.8235294,11.3022 15.3176471,10.8108 15.9529412,10.8108 L20.6823529,10.8108 C21.2470588,10.8108 21.8117647,11.3022 21.8117647,11.934 Z" id="Shape"></path>
                            <ellipse id="Oval" cx="18.2823529" cy="22.3938" rx="0.988235294" ry="0.9828"></ellipse>
                        </g>
                    </g>
                </g>
            </g>
        </g>
    </g>
</svg>

<svg width="36" height="36" viewBox="0 0 36 36" xmlns="http://www.w3.org/2000/svg"><title>noun_221171</title><g fill="#FFF" fill-rule="evenodd"><path d="M18.282 0C8.542 0 .635 7.862.635 17.55S8.541 35.1 18.282 35.1c3.953 0 7.765-1.334 10.87-3.72v1.754h1.554v-4.633h-4.659v1.545h2.4c-2.894 2.316-6.423 3.58-10.094 3.58-8.965 0-16.235-7.23-16.235-16.076 0-8.845 7.27-16.006 16.164-16.006 8.894 0 16.165 7.16 16.165 16.006 0 3.51-1.13 6.81-3.247 9.617l1.2.913a17.362 17.362 0 0 0 3.53-10.53C36 7.862 28.023 0 18.281 0z"/><path d="M15.953 9.266a2.674 2.674 0 0 0-2.682 2.668v11.302c0 1.474 1.2 2.668 2.682 2.668h4.73a2.674 2.674 0 0 0 2.682-2.668V11.934c0-1.474-1.2-2.668-2.683-2.668h-4.73zm5.859 2.668v11.302c0 .632-.494 1.123-1.13 1.123h-4.73a1.111 1.111 0 0 1-1.128-1.123V11.934c0-.632.494-1.123 1.129-1.123h4.73c.564 0 1.129.491 1.129 1.123z"/><ellipse cx="18.282" cy="22.394" rx=".988" ry=".983"/></g></svg>
